src/assets/images/material-symbols_currency-rupee.svg

<svg width="24" height="25" viewBox="0 0 24 25" fill="none" xmlns="http://www.w3.org/2000/svg">
<g id="material-symbols:currency-rupee">
<path id="Vector" d="M13.725 21.9414L7 14.9414V12.9414H10.5C11.3833 12.9414 12.146 12.6537 12.788 12.0784C13.4293 11.5037 13.8167 10.7914 13.95 9.94141H6V7.94141H13.65C13.3667 7.35807 12.946 6.87874 12.388 6.50341C11.8293 6.12874 11.2 5.94141 10.5 5.94141H6V3.94141H18V5.94141H14.75C14.9833 6.22474 15.1917 6.53307 15.375 6.86641C15.5583 7.19974 15.7 7.55807 15.8 7.94141H18V9.94141H15.975C15.8417 11.3581 15.2583 12.5454 14.225 13.5034C13.1917 14.4621 11.95 14.9414 10.5 14.9414H9.775L16.5 21.9414H13.725Z" fill="white"/>
</g>
</svg>

<svg width="24" height="25" fill="none" xmlns="http://www.w3.org/2000/svg"><path d="m13.725 21.941-6.725-7v-2h3.5c.883 0 1.646-.287 2.288-.863a3.522 3.522 0 0 0 1.162-2.137H6v-2h7.65a3.614 3.614 0 0 0-1.262-1.438 3.313 3.313 0 0 0-1.888-.562H6v-2h12v2h-3.25c.233.284.442.592.625.925.183.334.325.692.425 1.075H18v2h-2.025c-.133 1.417-.717 2.604-1.75 3.562-1.033.96-2.275 1.438-3.725 1.438h-.725l6.725 7h-2.775Z" fill="#fff"/></svg>
